X:1
T:D minor Refugees in Geneva, 1556
T:Thomas Sternhold, 1547 86. 86. (C. M.)
T:Psalm 1 No copyright. Transcribed from The Scottish Psalter, 1635.
%%score [ 1 2 3 4 ]
L:1/8
M:6/4
K:F
V:1 treble nm="Treble" snm="Tr."
V:2 treble nm="Counter" snm="C."
V:3 treble-8 nm="Tenor" snm="T."
V:4 bass nm="Bass" snm="B."
V:1
 d4 d4 ^c2 d2 | e2 f3 e d2 ^c4 | z4 A4 G2 F2 | F2 E2 F4 z4 | F4 FG AB c2 A2 | cB G2 A4 z4 | %6
 A4 c2 A2 GF E2 | F4 z4 A4 | B2 A3 G F2 F2 E2 | F4 z4 c4 | B2 A3 E G2 ^F4 | z4 F4 F2 E2 | %12
 F2 A2 A2 ^G2 A4 | z4 f2 e4 fe | d2 (d4 ^c2) d4- | d4 |] %16
V:2
"^That man is blest, that         hath  not lent                 To   wicked   men his ear;                Nor    led   his    life   as" F4 A4 A2 A2 | %1
 (c3 B) AG F2 E4 | z4 c4 c2 A>B | c2 c2 c4 z4 | c4 d2 f2 e2 f2 | %5
"^sinners      do,                  Nor  sat  in     scorners'       chair.            But       in    the    law      of   God  the   Lord         Doth" (e f2) e f4 z4 | %6
 f4 g2 fd(e d2) c | d4 z4 f4 | g2 f2 f2 c2 c2 c2 | A4 z4 f4 | %10
"^set his whole delight:             And    in the same doth exercise                        Himself both   day      and     night." f2 f2 d2 d2 d4 | %11
 z4 d4 c2 c2 | A2 c2 d2 d2 ^c4 | z4 A2 c4 A2 | B4 A4 ^F4- | F4 |] %16
V:3
 D4 F4 E2 F2 | G2 A4 A2 A4 | z4 F4 E2 F2 | G2 G2 A4 z4 | A4 B2 A2 G2 F2 | A2 G2 F4 z4 | %6
 D4 E2 F2 E2 E2 | D4 z4 d4 | d2 d2 c2 A2 G2 G2 | F4 z4 A4 | B2 c2 B2 B2 A4 | z4 A4 A2 G2 | %12
 F2 E2 F2 D2 E4 | z4 F2 G4 A2 | G4 E4 D4- | D4 |] %16
V:4
 D,4 D,4 A,,2 D,2 | C,2 (F,3 C,) D,2 ^C,4 | z4 F,,4 C,2 D,2 | C,2 C,2 F,,4 z4 | %4
 F,,4 B,,2 F,,2 C,2 D,2 | A,,>B,, C,2 F,,4 z4 | D,4 C,2 F,,2 G,,2 A,,2 | D,,4 z4 D,4 | %8
 G,,2 D,>E, F,2 F,2 C,2 C,2 | F,,4 z4 F,4 | B,,2 F,2 G,2 G,2 D,4 | z4 D,4 F,2 C,2 | %12
 D,2 A,,2 D,2 ^G,,B,, A,,4 | z4 F,,2 C,4 D,2 | G,,4 A,,4 D,,4- | D,,4 |] %16

